source/img/sprite/mark-as-favorite-star-empty.svg

<svg width="16" height="16" viewBox="0 0 16 16" fill="none" xmlns="http://www.w3.org/2000/svg">
<path fill-rule="evenodd" clip-rule="evenodd" d="M7.63441 10.5484L10.8153 12.3073L9.97596 8.99895L12.6574 6.86844L9.11688 6.58989L7.63441 3.38311L6.15197 6.58989L2.61141 6.86844L5.29286 8.99895L4.45356 12.3073L7.63441 10.5484ZM2.91634 14.3L4.16458 9.37971L0 6.0708L5.48992 5.63889L7.63441 1L9.77893 5.63889L15.2688 6.0708L11.1042 9.37971L12.3525 14.3L7.63441 11.6911L2.91634 14.3Z" fill="white"/>
</svg>

<svg width="16" height="16" fill="none" xmlns="http://www.w3.org/2000/svg"><path fill-rule="evenodd" clip-rule="evenodd" d="m7.63 10.55 3.19 1.76L9.98 9l2.68-2.13-3.54-.28-1.49-3.2-1.48 3.2-3.54.28L5.3 9l-.84 3.3 3.18-1.75ZM2.92 14.3l1.24-4.92L0 6.08l5.49-.44L7.63 1l2.15 4.64 5.49.43-4.17 3.31 1.25 4.92-4.72-2.6-4.71 2.6Z" fill="#fff"/></svg>
